!!!OTL: GEDENK MIT HOCHGEFUEHL AN JENE
!!!ARE: Europa, Mitteleuropa, Deutschland; France, Elsass
!!!SCT: E0360
!!!YEM: Copyright 1995, estate of Helmut Schaffrath.
**kern
*ICvox
*Ivox
*M4/4
*k[]
*C:
{8G
=1
4.c
8c
4G
8c
8G
=2
8A
8F
8c
8A
4A
4G}
=3
{4F
8G
8F
4E
4c
=4
4d
8c
8B
4c
8r}
{8G
=5
4.c
8c
4G
8c
8G
=6
8A
8F
8c
8A
4A
4G}
=7
{4F
8G
8F
4E
4c
=8
4d
8c
8B
4c
8r}
{8c
=9
4.d
8c
8.B
16A
8.G
16F
=10
4F
4E
4r}
{8G
8c
=11
4.d
8G
4.e
8d
=12
2c
4.r}
{8G
=13
4.c
8c
4G
8c
8G
=14
8A
8F
8c
8A
4A
4G}
=15
{4F
8G
8F
4E
4c
=16
4d
8.B
16e
2e}
=17
{8c
8B
8c
8A
4G
4e
=18
4.d
8B
4c
8r}
==
!!!AGN: historisches Lied, Krieg gegen Napoleon (1815)
!!!ONB: ESAC (Essen Associative Code) Database: ERK1
!!!AMT: simple quadruple
!!!AIN: vox
!!!EED: Helmut Schaffrath
!!!EEV: 1.0
*-
